packages/bpk-svgs/src/icons/lg/menu.svg

<svg viewBox="0 0 24 24" fill="none" xmlns="http://www.w3.org/2000/svg">
<path d="M21 7H3C2.4 7 2 6.6 2 6C2 5.4 2.4 5 3 5H21C21.6 5 22 5.4 22 6C22 6.6 21.6 7 21 7ZM22 12C22 12.6 21.6667 13 21.1667 13H2.83333C2.33333 13 2 12.6 2 12C2 11.4 2.33333 11 2.83333 11H21.1667C21.6667 11 22 11.4 22 12ZM20.8889 17C21.5556 17 22 17.4 22 18C22 18.6 21.5556 19 20.8889 19H3.11111C2.44444 19 2 18.6 2 18C2 17.4 2.44444 17 3.11111 17H20.8889Z" fill="#111236"/>
</svg>

<svg xmlns="http://www.w3.org/2000/svg" viewBox="0 0 24 24"><path d="M21 7H3c-.6 0-1-.4-1-1s.4-1 1-1h18c.6 0 1 .4 1 1s-.4 1-1 1zm1 5c0 .6-.333 1-.833 1H2.833c-.5 0-.833-.4-.833-1s.333-1 .833-1h18.334c.5 0 .833.4.833 1zm-1.111 5c.667 0 1.111.4 1.111 1s-.444 1-1.111 1H3.11C2.444 19 2 18.6 2 18s.444-1 1.111-1H20.89z"/></svg>
